;Generated with Cura_SteamEngine 14.09
; Default start code
G28 ; Home extruder
G1 Z15 F600
M107 ; Turn off fan
G90 ; Absolute positioning
M82 ; Extruder in absolute mode
; Activate all used extruder
M104 T0 S210
G92 E0 ; Reset extruder position
; Wait for all used extruders to reach temperature
M109 T0 S210
;Layer count: 276
;LAYER:0
M106 S255
G0 F5400 X3.100 Y24.128 Z0.300
;TYPE:SKIRT
G1 F1800 X159.500 Y24.127 E7.02254
G1 X159.500 Y182.701 E14.14270
G1 X6.500 Y182.701 E21.01259
G1 X6.500 Y192.554 E21.45500
G1 X-5.673 Y192.554 E22.00158
G1 X-5.673 Y180.381 E22.54816
G1 X3.100 Y180.381 E22.94208
G1 X3.100 Y24.128 E29.95802
G0 F5400 X6.900 Y27.928
;TYPE:WALL-INNER
G1 F1800 X155.700 Y27.927 E36.63932
G1 X155.700 Y178.901 E43.41823
G1 X6.900 Y178.901 E50.09953
G1 X6.900 Y27.928 E56.87839
G0 F5400 X39.188 Y60.198
G1 F1800 X38.778 Y60.578 E56.90349
G1 X38.400 Y60.987 E56.92850
G1 X38.055 Y61.425 E56.95354
G1 X37.745 Y61.888 E56.97855
G1 X37.473 Y62.374 E57.00356
G1 X37.239 Y62.881 E57.02863
G1 X37.047 Y63.404 E57.05365
G1 X36.895 Y63.941 E57.07871
G1 X36.787 Y64.487 E57.10370
G1 X36.721 Y65.041 E57.12875
G1 X36.700 Y65.598 E57.15378
G1 X36.721 Y66.155 E57.17881
G1 X36.787 Y66.709 E57.20386
G1 X36.895 Y67.255 E57.22885
G1 X37.047 Y67.792 E57.25391
G1 X37.239 Y68.315 E57.27892
G1 X37.473 Y68.822 E57.30400
G1 X37.745 Y69.308 E57.32900
G1 X38.055 Y69.772 E57.35406
G1 X38.400 Y70.210 E57.37909
G1 X38.778 Y70.619 E57.40410
G1 X39.188 Y70.998 E57.42917
G1 X39.626 Y71.343 E57.45421
G1 X40.089 Y71.652 E57.47920
G1 X40.576 Y71.925 E57.50427
G1 X41.082 Y72.158 E57.52928
G1 X41.606 Y72.351 E57.55435
G1 X42.142 Y72.502 E57.57936
G1 X42.689 Y72.611 E57.60440
G1 X43.243 Y72.677 E57.62945
G1 X43.800 Y72.698 E57.65448
G1 X44.357 Y72.677 E57.67951
G1 X44.910 Y72.611 E57.70452
G1 X45.457 Y72.503 E57.72955
G1 X45.994 Y72.351 E57.75461
G1 X46.517 Y72.158 E57.77964
G1 X47.023 Y71.925 E57.80465
G1 X47.510 Y71.652 E57.82972
G1 X47.973 Y71.343 E57.85472
G1 X48.411 Y70.998 E57.87975
G1 X48.821 Y70.618 E57.90485
G1 X49.199 Y70.209 E57.92986
G1 X49.544 Y69.772 E57.95486
G1 X49.854 Y69.308 E57.97991
G1 X50.126 Y68.822 E58.00492
G1 X50.360 Y68.316 E58.02995
G1 X50.552 Y67.792 E58.05501
G1 X50.704 Y67.256 E58.08003
G1 X50.813 Y66.709 E58.10507
G1 X50.879 Y66.155 E58.13012
G1 X50.900 Y65.598 E58.15515
G1 X50.879 Y65.041 E58.18018
G1 X50.813 Y64.487 E58.20523
G1 X50.704 Y63.940 E58.23027
G1 X50.552 Y63.404 E58.25529
G1 X50.360 Y62.881 E58.28030
G1 X50.126 Y62.374 E58.30538
G1 X49.854 Y61.888 E58.33038
G1 X49.544 Y61.424 E58.35544
G1 X49.199 Y60.987 E58.38044
G1 X48.821 Y60.578 E58.40545
G1 X48.411 Y60.198 E58.43055
G1 X47.973 Y59.853 E58.45558
G1 X47.510 Y59.544 E58.48058
G1 X47.023 Y59.271 E58.50564
G1 X46.517 Y59.038 E58.53066
G1 X45.993 Y58.845 E58.55573
G1 X45.457 Y58.694 E58.58073
G1 X44.910 Y58.585 E58.60578
G1 X44.357 Y58.519 E58.63078
G1 X43.800 Y58.498 E58.65581
G1 X43.243 Y58.519 E58.68084
G1 X42.689 Y58.585 E58.70589
G1 X42.142 Y58.694 E58.73094
G1 X41.606 Y58.845 E58.75594
G1 X41.082 Y59.038 E58.78101
G1 X40.576 Y59.272 E58.80604
G1 X40.090 Y59.544 E58.83105
G1 X39.626 Y59.853 E58.85608
G1 X39.188 Y60.198 E58.88112
G0 F5400 X37.240 Y62.882
G0 X36.722 Y66.154
G0 X37.473 Y68.821
G0 X30.700 Y116.459
G1 F1800 X30.700 Y159.658 E60.82080
G1 X131.900 Y159.658 E65.36480
G1 X131.900 Y116.459 E67.30449
G1 X30.700 Y116.459 E71.84849
G0 F5400 X112.473 Y68.822
G1 F1800 X112.746 Y69.308 E71.87352
G1 X113.055 Y69.772 E71.89855
G1 X113.401 Y70.210 E71.92361
G1 X113.780 Y70.619 E71.94865
G1 X114.189 Y70.997 E71.97366
G1 X114.626 Y71.343 E71.99868
G1 X115.089 Y71.652 E72.02368
G1 X115.577 Y71.925 E72.04878
G1 X116.083 Y72.158 E72.07380
G1 X116.605 Y72.351 E72.09879
G1 X117.143 Y72.502 E72.12388
G1 X117.689 Y72.611 E72.14888
G1 X118.243 Y72.677 E72.17393
G1 X118.800 Y72.698 E72.19896
G1 X119.357 Y72.677 E72.22398
G1 X119.911 Y72.611 E72.24903
G1 X120.457 Y72.503 E72.27403
G1 X120.995 Y72.351 E72.29913
G1 X121.517 Y72.158 E72.32412
G1 X122.023 Y71.925 E72.34913
G1 X122.509 Y71.652 E72.37416
G1 X122.974 Y71.343 E72.39923
G1 X123.411 Y70.997 E72.42426
G1 X123.821 Y70.619 E72.44930
G1 X124.199 Y70.209 E72.47433
G1 X124.545 Y69.772 E72.49936
G1 X124.854 Y69.308 E72.52439
G1 X125.127 Y68.822 E72.54942
G1 X125.360 Y68.316 E72.57444
G1 X125.553 Y67.792 E72.59951
G1 X125.704 Y67.255 E72.62456
G1 X125.813 Y66.709 E72.64956
G1 X125.879 Y66.155 E72.67461
G1 X125.900 Y65.598 E72.69964
G1 X125.879 Y65.041 E72.72466
G1 X125.813 Y64.487 E72.74971
G1 X125.704 Y63.941 E72.77471
G1 X125.553 Y63.403 E72.79980
G1 X125.360 Y62.881 E72.82479
G1 X125.127 Y62.374 E72.84985
G1 X124.854 Y61.888 E72.87488
G1 X124.545 Y61.424 E72.89991
G1 X124.199 Y60.987 E72.92493
G1 X123.821 Y60.577 E72.94997
G1 X123.411 Y60.199 E72.97501
G1 X122.974 Y59.853 E73.00004
G1 X122.509 Y59.544 E73.02511
G1 X122.023 Y59.271 E73.05014
G1 X121.517 Y59.038 E73.07515
G1 X120.995 Y58.845 E73.10014
G1 X120.457 Y58.694 E73.12523
G1 X119.911 Y58.585 E73.15023
G1 X119.357 Y58.519 E73.17528
G1 X118.800 Y58.498 E73.20031
G1 X118.243 Y58.519 E73.22534
G1 X117.689 Y58.585 E73.25039
G1 X117.143 Y58.694 E73.27539
G1 X116.605 Y58.845 E73.30048
G1 X116.083 Y59.038 E73.32547
G1 X115.577 Y59.272 E73.35050
G1 X115.090 Y59.544 E73.37555
G1 X114.626 Y59.853 E73.40058
G1 X114.189 Y60.199 E73.42561
G1 X113.779 Y60.577 E73.45065
G1 X113.400 Y60.987 E73.47572
G1 X113.055 Y61.425 E73.50075
G1 X112.746 Y61.888 E73.52574
G1 X112.473 Y62.374 E73.55077
G1 X112.240 Y62.881 E73.57583
G1 X112.047 Y63.403 E73.60082
G1 X111.896 Y63.941 E73.62591
G1 X111.787 Y64.486 E73.65086
G1 X111.720 Y65.041 E73.67596
G1 X111.700 Y65.598 E73.70099
G1 X111.720 Y66.155 E73.72602
G1 X111.787 Y66.710 E73.75112
G1 X111.896 Y67.255 E73.77607
G1 X112.047 Y67.793 E73.80116
G1 X112.240 Y68.315 E73.82615
G1 X112.473 Y68.822 E73.85121
G0 F5400 X112.610 Y68.162
;TYPE:WALL-OUTER
G1 F1800 X112.830 Y68.640 E73.87483
G1 X113.087 Y69.099 E73.89845
G1 X113.379 Y69.537 E73.92209
G1 X113.705 Y69.950 E73.94571
G1 X114.063 Y70.336 E73.96935
G1 X114.449 Y70.693 E73.99296
G1 X114.861 Y71.019 E74.01655
G1 X115.298 Y71.311 E74.04015
G1 X115.758 Y71.568 E74.06381
G1 X116.236 Y71.788 E74.08744
G1 X116.729 Y71.970 E74.11103
G1 X117.236 Y72.113 E74.13469
G1 X117.752 Y72.216 E74.15831
G1 X118.274 Y72.278 E74.18192
G1 X118.800 Y72.298 E74.20555
G1 X119.326 Y72.278 E74.22919
G1 X119.848 Y72.216 E74.25279
G1 X120.364 Y72.114 E74.27641
G1 X120.871 Y71.970 E74.30007
G1 X121.364 Y71.788 E74.32367
G1 X121.841 Y71.568 E74.34725
G1 X122.300 Y71.311 E74.37087
G1 X122.739 Y71.019 E74.39455
G1 X123.151 Y70.693 E74.41814
G1 X123.538 Y70.336 E74.44178
G1 X123.895 Y69.949 E74.46542
G1 X124.221 Y69.537 E74.48901
G1 X124.513 Y69.099 E74.51265
G1 X124.770 Y68.640 E74.53627
G1 X124.990 Y68.163 E74.55985
G1 X125.172 Y67.669 E74.58349
G1 X125.315 Y67.162 E74.60715
G1 X125.418 Y66.646 E74.63077
G1 X125.480 Y66.124 E74.65437
G1 X125.500 Y65.598 E74.67801
G1 X125.480 Y65.072 E74.70164
G1 X125.418 Y64.550 E74.72525
G1 X125.315 Y64.034 E74.74887
G1 X125.172 Y63.527 E74.77253
G1 X124.990 Y63.034 E74.79612
G1 X124.770 Y62.556 E74.81975
G1 X124.513 Y62.097 E74.84337
G1 X124.221 Y61.659 E74.86701
G1 X123.895 Y61.247 E74.89060
G1 X123.538 Y60.860 E74.91424
G1 X123.151 Y60.503 E74.93788
G1 X122.739 Y60.177 E74.96147
G1 X122.300 Y59.885 E74.98514
G1 X121.841 Y59.628 E75.00876
G1 X121.364 Y59.408 E75.03235
G1 X120.871 Y59.226 E75.05595
G1 X120.364 Y59.083 E75.07960
G1 X119.848 Y58.980 E75.10323
G1 X119.326 Y58.918 E75.12683
G1 X118.800 Y58.898 E75.15046
G1 X118.274 Y58.918 E75.17410
G1 X117.752 Y58.980 E75.19770
G1 X117.236 Y59.083 E75.22133
G1 X116.729 Y59.226 E75.24498
G1 X116.236 Y59.408 E75.26858
G1 X115.758 Y59.629 E75.29222
G1 X115.299 Y59.885 E75.31582
G1 X114.861 Y60.177 E75.33946
G1 X114.449 Y60.503 E75.36305
G1 X114.062 Y60.860 E75.38669
G1 X113.705 Y61.247 E75.41033
G1 X113.379 Y61.660 E75.43396
G1 X113.087 Y62.097 E75.45755
G1 X112.830 Y62.556 E75.48118
G1 X112.610 Y63.034 E75.50480
G1 X112.428 Y63.527 E75.52840
G1 X112.285 Y64.034 E75.55205
G1 X112.182 Y64.549 E75.57563
G1 X112.119 Y65.072 E75.59929
G1 X112.100 Y65.598 E75.62292
G1 X112.119 Y66.124 E75.64655
G1 X112.182 Y66.647 E75.67021
G1 X112.285 Y67.162 E75.69379
G1 X112.428 Y67.669 E75.71744
G1 X112.610 Y68.162 E75.74104
G0 F5400 X112.339 Y68.288
G0 X131.500 Y116.559
G0 X131.500 Y116.859
G1 F1800 X31.100 Y116.859 E80.24912
G1 X31.100 Y159.258 E82.15288
G1 X131.500 Y159.258 E86.66096
G1 X131.500 Y116.859 E88.56473
G0 F5400 X131.500 Y116.559
G0 X131.841 Y116.518
G0 X155.800 Y179.091
G0 X156.100 Y179.301
G1 F1800 X6.500 Y179.301 E95.28194
G1 X6.500 Y27.528 E102.09673
G1 X156.100 Y27.527 E108.81395
G1 X156.100 Y179.301 E115.62878
G0 F5400 X155.800 Y179.091
G0 X131.841 Y116.518
G0 X48.758 Y70.537
G0 X48.538 Y70.335
G1 F1800 X48.894 Y69.949 E115.65236
G1 X49.220 Y69.537 E115.67595
G1 X49.513 Y69.099 E115.69961
G1 X49.769 Y68.640 E115.72321
G1 X49.990 Y68.163 E115.74681
G1 X50.171 Y67.669 E115.77044
G1 X50.315 Y67.162 E115.79410
G1 X50.418 Y66.646 E115.81773
G1 X50.480 Y66.124 E115.84133
G1 X50.500 Y65.598 E115.86496
G1 X50.480 Y65.072 E115.88860
G1 X50.418 Y64.550 E115.91220
G1 X50.315 Y64.034 E115.93583
G1 X50.171 Y63.527 E115.95949
G1 X49.990 Y63.034 E115.98308
G1 X49.769 Y62.556 E116.00672
G1 X49.513 Y62.097 E116.03032
G1 X49.220 Y61.659 E116.05398
G1 X48.894 Y61.247 E116.07757
G1 X48.538 Y60.861 E116.10115
G1 X48.151 Y60.503 E116.12482
G1 X47.738 Y60.177 E116.14845
G1 X47.301 Y59.885 E116.17204
G1 X46.841 Y59.628 E116.19570
G1 X46.364 Y59.408 E116.21929
G1 X45.870 Y59.226 E116.24293
G1 X45.364 Y59.083 E116.26654
G1 X44.847 Y58.980 E116.29021
G1 X44.326 Y58.918 E116.31377
G1 X43.800 Y58.898 E116.33740
G1 X43.274 Y58.918 E116.36104
G1 X42.752 Y58.980 E116.38464
G1 X42.235 Y59.083 E116.40831
G1 X41.729 Y59.226 E116.43192
G1 X41.235 Y59.408 E116.45556
G1 X40.758 Y59.629 E116.47916
G1 X40.299 Y59.885 E116.50276
G1 X39.861 Y60.177 E116.52640
G1 X39.448 Y60.503 E116.55002
G1 X39.061 Y60.861 E116.57370
G1 X38.705 Y61.247 E116.59727
G1 X38.379 Y61.660 E116.62090
G1 X38.086 Y62.097 E116.64452
G1 X37.830 Y62.556 E116.66812
G1 X37.609 Y63.034 E116.69177
G1 X37.428 Y63.527 E116.71535
G1 X37.284 Y64.034 E116.73901
G1 X37.182 Y64.550 E116.76263
G1 X37.120 Y65.072 E116.78623
G1 X37.100 Y65.598 E116.80987
G1 X37.120 Y66.124 E116.83350
G1 X37.182 Y66.646 E116.85711
G1 X37.284 Y67.162 E116.88072
G1 X37.428 Y67.669 E116.90439
G1 X37.609 Y68.162 E116.92797
G1 X37.830 Y68.640 E116.95162
G1 X38.086 Y69.099 E116.97522
G1 X38.379 Y69.537 E116.99888
G1 X38.705 Y69.950 E117.02250
G1 X39.061 Y70.336 E117.04608
G1 X39.448 Y70.693 E117.06972
G1 X39.861 Y71.019 E117.09335
G1 X40.298 Y71.311 E117.11695
G1 X40.758 Y71.568 E117.14060
G1 X41.235 Y71.788 E117.16419
G1 X41.729 Y71.970 E117.18783
G1 X42.235 Y72.113 E117.21144
G1 X42.752 Y72.216 E117.23511
G1 X43.274 Y72.278 E117.25871
G1 X43.800 Y72.298 E117.28235
G1 X44.326 Y72.278 E117.30598
G1 X44.847 Y72.216 E117.32954
G1 X45.364 Y72.114 E117.35320
G1 X45.870 Y71.970 E117.37682
G1 X46.364 Y71.788 E117.40046
G1 X46.841 Y71.568 E117.42405
G1 X47.301 Y71.311 E117.44771
G1 X47.738 Y71.019 E117.47131
G1 X48.151 Y70.693 E117.49493
G1 X48.538 Y70.335 E117.51860
G0 F5400 X48.928 Y70.707
;TYPE:FILL
G1 F1800 X94.539 Y116.318 E120.41490
G0 F5400 X93.973 Y116.318
G1 F1800 X48.636 Y70.980 E123.29382
G0 F5400 X48.330 Y71.240
G1 F1800 X93.408 Y116.318 E126.15627
G0 F5400 X92.842 Y116.318
G1 F1800 X48.010 Y71.486 E129.00309
G0 F5400 X47.671 Y71.712
G1 F1800 X92.276 Y116.318 E131.83554
G0 F5400 X91.711 Y116.318
G1 F1800 X47.315 Y71.922 E134.65468
G0 F5400 X46.943 Y72.116
G1 F1800 X91.145 Y116.318 E137.46150
G0 F5400 X90.579 Y116.318
G1 F1800 X46.554 Y72.293 E140.25708
G0 F5400 X46.141 Y72.445
G1 F1800 X90.013 Y116.318 E143.04298
G0 F5400 X89.448 Y116.318
G1 F1800 X45.707 Y72.577 E145.82052
G0 F5400 X45.250 Y72.686
G1 F1800 X88.882 Y116.318 E148.59115
G0 F5400 X88.316 Y116.318
G1 F1800 X44.766 Y72.768 E151.35657
G0 F5400 X44.252 Y72.819
G1 F1800 X87.751 Y116.318 E154.11875
G0 F5400 X87.185 Y116.318
G1 F1800 X43.700 Y72.833 E156.88004
G0 F5400 X43.102 Y72.800
G1 F1800 X86.619 Y116.318 E159.64340
G0 F5400 X86.054 Y116.318
G1 F1800 X42.439 Y72.703 E162.41294
G0 F5400 X41.688 Y72.518
G1 F1800 X85.488 Y116.318 E165.19424
G0 F5400 X84.922 Y116.318
G1 F1800 X40.775 Y72.170 E167.99760
G0 F5400 X39.313 Y71.274
G1 F1800 X84.357 Y116.318 E170.85788
G0 F5400 X83.791 Y116.318
G1 F1800 X7.039 Y39.566 E175.73163
G0 F5400 X7.039 Y39.001
G1 F1800 X38.124 Y70.085 E177.70549
G0 F5400 X37.226 Y68.621
G1 F1800 X7.039 Y38.435 E179.62233
G0 F5400 X7.039 Y37.869
G1 F1800 X36.879 Y67.709 E181.51716
G0 F5400 X36.693 Y66.958
G1 F1800 X7.039 Y37.304 E183.40019
G0 F5400 X7.039 Y36.738
G1 F1800 X36.597 Y66.295 E185.27708
G0 F5400 X36.563 Y65.696
G1 F1800 X7.039 Y36.172 E187.15185
G0 F5400 X7.039 Y35.607
G1 F1800 X36.577 Y65.145 E189.02751
G0 F5400 X36.628 Y64.630
G1 F1800 X7.039 Y35.041 E190.90641
G0 F5400 X7.039 Y34.475
G1 F1800 X36.711 Y64.147 E192.79058
G0 F5400 X36.820 Y63.690
G1 F1800 X7.039 Y33.910 E194.68164
G0 F5400 X7.039 Y33.344
G1 F1800 X36.951 Y63.256 E196.58104
G0 F5400 X37.104 Y62.842
G1 F1800 X7.039 Y32.778 E198.49014
G0 F5400 X7.039 Y32.212
G1 F1800 X37.281 Y62.454 E200.41050
G0 F5400 X37.475 Y62.082
G1 F1800 X7.039 Y31.647 E202.34315
G0 F5400 X7.039 Y31.081
G1 F1800 X37.684 Y61.726 E204.28910
G0 F5400 X37.911 Y61.387
G1 F1800 X7.039 Y30.515 E206.24947
G0 F5400 X7.039 Y29.950
G1 F1800 X38.157 Y61.067 E208.22543
G0 F5400 X38.417 Y60.761
G1 F1800 X7.039 Y29.384 E210.21789
G0 F5400 X7.039 Y28.818
G1 F1800 X38.689 Y60.468 E212.22766
G0 F5400 X38.982 Y60.196
G1 F1800 X7.039 Y28.253 E214.25604
G0 F5400 X7.420 Y28.067
G1 F1800 X39.290 Y59.937 E216.27978
G0 F5400 X39.611 Y59.693
G1 F1800 X7.986 Y28.067 E218.28799
G0 F5400 X8.551 Y28.067
G1 F1800 X39.950 Y59.466 E220.28183
G0 F5400 X40.308 Y59.259
G1 F1800 X9.117 Y28.067 E222.26248
G0 F5400 X9.683 Y28.067
G1 F1800 X40.681 Y59.066 E224.23088
G0 F5400 X41.071 Y58.890
G1 F1800 X10.248 Y28.067 E226.18814
G0 F5400 X10.814 Y28.067
G1 F1800 X41.485 Y58.739 E228.13578
G0 F5400 X41.921 Y58.609
G1 F1800 X11.380 Y28.067 E230.07516
G0 F5400 X11.945 Y28.067
G1 F1800 X42.379 Y58.501 E232.00771
G0 F5400 X42.865 Y58.421
G1 F1800 X12.511 Y28.067 E233.93519
G0 F5400 X13.077 Y28.067
G1 F1800 X43.382 Y58.373 E235.85958
G0 F5400 X43.937 Y58.362
G1 F1800 X13.642 Y28.067 E237.78331
G0 F5400 X14.208 Y28.067
G1 F1800 X44.539 Y58.398 E239.70932
G0 F5400 X45.207 Y58.501
G1 F1800 X14.774 Y28.067 E241.64185
G0 F5400 X15.339 Y28.067
G1 F1800 X45.961 Y58.689 E243.58634
G0 F5400 X46.893 Y59.055
G1 F1800 X15.905 Y28.067 E245.55407
G0 F5400 X16.471 Y28.067
G1 F1800 X48.465 Y60.062 E247.58572
G0 F5400 X49.327 Y60.924
G1 F1800 X104.721 Y116.318 E251.10323
G0 F5400 X104.156 Y116.318
G1 F1800 X50.338 Y62.501 E254.52063
G0 F5400 X50.705 Y63.433
G1 F1800 X103.590 Y116.318 E257.87882
G0 F5400 X103.024 Y116.318
G1 F1800 X50.896 Y64.190 E261.18895
G0 F5400 X50.997 Y64.857
G1 F1800 X102.459 Y116.318 E264.45674
G0 F5400 X101.893 Y116.318
G1 F1800 X51.034 Y65.459 E267.68628
G0 F5400 X51.024 Y66.014
G1 F1800 X101.327 Y116.318 E270.88055
G0 F5400 X100.762 Y116.318
G1 F1800 X50.974 Y66.530 E274.04208
G0 F5400 X50.894 Y67.016
G1 F1800 X100.196 Y116.318 E277.17275
G0 F5400 X99.630 Y116.318
G1 F1800 X50.787 Y67.474 E280.27430
G0 F5400 X50.657 Y67.910
G1 F1800 X99.064 Y116.318 E283.34817
G0 F5400 X98.499 Y116.318
G1 F1800 X50.505 Y68.324 E286.39579
G0 F5400 X50.329 Y68.714
G1 F1800 X97.933 Y116.318 E289.41863
G0 F5400 X97.367 Y116.318
G1 F1800 X50.137 Y69.087 E292.41776
G0 F5400 X49.929 Y69.445
G1 F1800 X96.802 Y116.318 E295.39419
G0 F5400 X96.236 Y116.318
G1 F1800 X49.703 Y69.785 E298.34903
G0 F5400 X49.457 Y70.105
G1 F1800 X95.670 Y116.318 E301.28355
G0 F5400 X95.105 Y116.318
G1 F1800 X49.199 Y70.412 E304.19858
G1 F4200 E304.09858
G0 F5400 X7.039 Y70.679
G1 F4200 E304.19858
G1 F1800 X52.678 Y116.318 E307.09665
G0 F5400 X52.113 Y116.318
G1 F1800 X7.039 Y71.245 E309.95881
G0 F5400 X7.039 Y71.810
G1 F1800 X51.547 Y116.318 E312.78506
G0 F5400 X50.981 Y116.318
